Adwaita++/actions/22/image-red-eye.svg

<svg height="22" viewBox="0 0 22 22" width="22" xmlns="http://www.w3.org/2000/svg">
  <path d="m2.34375.9375-1.40625 1.40625 2.1132812 2.1132812c-2.20009995 1.4746-3.0507812 3.5429688-3.0507812 3.5429688s2 5.003906 8 5.003906c1.1815 0 2.191172-.208484 3.076172-.521484l2.580078 2.580078 1.40625-1.40625zm5.65625 2.0664062c-.5239 0-1.0064031.0496407-1.4707031.1191407l1.9199219 1.9199219a3 3 0 0 1 2.5156252 2.515625l3.109375 3.1093752c1.374-1.3022002 1.925781-2.6640627 1.925781-2.6640628 0 0-2-5-8-5zm-2.6992188 3.703125 3.9960938 3.9960938a3 3 0 0 1 -1.296875.300781 3 3 0 0 1 -3-2.9999998 3 3 0 0 1 .3007812-1.296875z" fill="#444" transform="translate(3 3)"/>
</svg>

<svg xmlns="http://www.w3.org/2000/svg" width="22" height="22" viewBox="0 0 22 22">
 <defs>
  <style id="current-color-scheme" type="text/css">
   .ColorScheme-Text { color:#444444; } .ColorScheme-Highlight { color:#4285f4; }
  </style>
 </defs>
 <path style="fill:currentColor" class="ColorScheme-Text" d="M 2.34375 0.9375 L 0.9375 2.34375 L 3.0507812 4.4570312 C 0.85068125 5.9316312 8.8817842e-16 8 0 8 C 0 8 2 13.003906 8 13.003906 C 9.1815 13.003906 10.191172 12.795422 11.076172 12.482422 L 13.65625 15.0625 L 15.0625 13.65625 L 2.34375 0.9375 z M 8 3.0039062 C 7.4761 3.0039062 6.9935969 3.0535469 6.5292969 3.1230469 L 8.4492188 5.0429688 A 3 3 0 0 1 10.964844 7.5585938 L 14.074219 10.667969 C 15.448219 9.3657688 16 8.0039063 16 8.0039062 C 16 8.0039062 14 3.0039062 8 3.0039062 z M 5.3007812 6.7070312 L 9.296875 10.703125 A 3 3 0 0 1 8 11.003906 A 3 3 0 0 1 5 8.0039062 A 3 3 0 0 1 5.3007812 6.7070312 z" transform="translate(3 3)"/>
</svg>
